X: 888
T: Alexander's
R: hornpipe
M: 4/4
K: Dmajor
|:(3ABc|d>AF>A D>FA>d|f>dc>d F>Ad>f|(3ggg g>e (3fff f>d|(3efe (3dcB A2 (3ABc|
d>AF>A D>FA>d|f>dc>d F>Ad>f|(3ggg g>e (3fff f>d|(3efe d>c d2:|
|:A>G|F>Ad>A F>Ad>A|G>Bd>B G>Bd>B|A>ce>c A>ce>c|d>fa>f (3gfe c>A|
F>Ad>A F>Ad>A|G>Bd>B G>Bd>B|A>ce>f (3gfe c>d|(3efe d>c d2:|

